assets/business-color/BusinessColor34.svg

<svg xmlns="http://www.w3.org/2000/svg" id="Layer_1" x="0" y="0" version="1.1" viewBox="0 0 256 256" xml:space="preserve"><style>.st0{fill:#dbfdff}.st1{fill:#9feaff}.st2{fill:#fff}.st3{fill:#48386a}.st5{fill:#ff8584}.st6{fill:#febe7f}</style><path d="M180.9 138.9c.9-3.7 1.3-7.6 1.3-11.5 0-2.9-.3-5.8-.7-8.6 25.6-2.5 45.6-24 45.6-50.3 0-27.9-22.6-50.5-50.5-50.5-8.6 0-16.7 2.1-23.7 5.9-9-8.2-20.9-13.2-34.1-13.2-11.1 0-21.4 3.6-29.8 9.7-6.4-2.8-13.3-4.4-20.7-4.4-27.9 0-50.5 22.6-50.5 50.5S40.4 117 68.3 117c5 0 9.9-.7 14.4-2.1-1 4-1.6 8.2-1.6 12.5 0 4.5.6 8.8 1.7 13-4.6-1.4-9.5-2.1-14.6-2.1-27.9 0-50.5 22.6-50.5 50.5s22.6 50.5 50.5 50.5c10.2 0 19.7-3 27.7-8.3 9 8.4 21.1 13.5 34.4 13.5 10.9 0 21-3.5 29.2-9.3 6.5 3 13.7 4.7 21.3 4.7 27.9 0 50.5-22.6 50.5-50.5.1-27.8-22.5-50.5-50.4-50.5z" class="st0"/><path d="M239.3 71.2v128.3H23.1V48.7c0-2.8 2.2-5 5-5h206.2c2.8 0 5 2.2 5 5v22.5z" class="st1"/><path d="M219.7 212.3H10.1c-3.5 0-6.4-2.9-6.4-6.4 0-3.5 2.9-6.4 6.4-6.4h235.3c3.5 0 6.4 2.9 6.4 6.4 0 3.5-2.9 6.4-6.4 6.4h-25.7z" class="st2"/><path d="M245.3 213.3h-18c-.6 0-1-.4-1-1s.4-1 1-1h18c3 0 5.4-2.4 5.4-5.4 0-3-2.4-5.4-5.4-5.4H10.1c-3 0-5.4 2.4-5.4 5.4 0 3 2.4 5.4 5.4 5.4h209.6c.6 0 1 .4 1 1s-.4 1-1 1H10.1c-4.1 0-7.4-3.3-7.4-7.4 0-4.1 3.3-7.4 7.4-7.4h235.3c4.1 0 7.4 3.3 7.4 7.4-.1 4.1-3.4 7.4-7.5 7.4z" class="st3"/><path d="M99.7 207.2h-5.9l-5.6-7.6h79l-5.6 7.6h-55.8z" class="st2"/><path d="M161.6 207.7h-55.8c-.3 0-.5-.2-.5-.5s.2-.5.5-.5h55.5l4.9-6.7h-77l4.9 6.7h5.6c.3 0 .5.2.5.5s-.2.5-.5.5h-5.9c-.2 0-.3-.1-.4-.2l-5.6-7.7c-.1-.2-.1-.4 0-.5.1-.2.3-.3.4-.3h79c.2 0 .4.1.4.3.1.2.1.4 0 .5l-5.6 7.7c-.1.2-.2.2-.4.2z" class="st3"/><path d="M235.8 200.6H19.6c-.6 0-1-.4-1-1V48.7c0-3.3 2.7-6 6-6h206.2c3.3 0 6 2.7 6 6v15.8c0 .6-.4 1-1 1s-1-.4-1-1V48.7c0-2.2-1.8-4-4-4H24.6c-2.2 0-4 1.8-4 4v149.8h214.2V71.2c0-.6.4-1 1-1s1 .4 1 1v128.3c0 .6-.5 1.1-1 1.1z" class="st3"/><path d="M25.2 84.8c-.6 0-1-.4-1-1v-2.3c0-.6.4-1 1-1s1 .4 1 1v2.3c0 .5-.4 1-1 1z" class="st3"/><path d="M25.2 75.5V49.3h205v144.6h-205V88.8z" class="st2"/><path d="M230.2 194.9h-205c-.6 0-1-.4-1-1V88.8c0-.6.4-1 1-1s1 .4 1 1V193h202.9V50.3H26.2v25.2c0 .6-.4 1-1 1s-1-.4-1-1V49.3c0-.6.4-1 1-1h204.9c.6 0 1 .4 1 1v144.6c.1.6-.4 1-.9 1zM127.7 207.5c-.3 0-.5-.2-.5-.5v-7.5c0-.3.2-.5.5-.5s.5.2.5.5v7.5c0 .3-.2.5-.5.5z" class="st3"/><path fill="#ffffed" d="M73 162.2v31.7h109.4V85.2l-22.7-22.7H73V157z"/><path d="M182.4 194.9H73c-.6 0-1-.4-1-1v-31.7c0-.6.4-1 1-1s1 .4 1 1v30.7h107.4V85.6l-22.1-22.1H74V157c0 .6-.4 1-1 1s-1-.4-1-1V62.5c0-.6.4-1 1-1h86.7c.3 0 .5.1.7.3l22.7 22.7c.2.2.3.4.3.7v108.7c0 .6-.5 1-1 1z" class="st3"/><path d="M182.4 86.2h-22.7c-.6 0-1-.4-1-1V62.5c0-.4.2-.8.6-.9.4-.2.8-.1 1.1.2l22.7 22.7c.3.3.4.7.2 1.1-.1.4-.5.6-.9.6zm-21.7-2H180l-19.3-19.3v19.3z" class="st3"/><path d="M104.7 69.8h12.6v31.8H83.1V69.8h17.1zM82.6 162.2H139v11H82.6z" class="st5"/><path d="M149.8 119.9H83.1v-11h91.5v11h-18.8z" class="st6"/><path d="M153 145.9c2.1-1.2 4.5-1.8 7-1.8 8 0 14.5 6.5 14.5 14.5s-6.5 14.5-14.5 14.5-14.5-6.5-14.5-14.5c0-3.4 1.2-6.6 3.2-9.1l4.3-3.6z" class="st0"/><path d="M113.8 102.1H79.6c-.3 0-.5-.2-.5-.5V69.8c0-.3.2-.5.5-.5h17.1c.3 0 .5.2.5.5s-.2.5-.5.5H80.1v30.8h33.3V70.3h-12.1c-.3 0-.5-.2-.5-.5s.2-.5.5-.5h12.6c.3 0 .5.2.5.5v31.8c-.1.3-.3.5-.6.5zM171.1 120.4h-18.7c-.3 0-.5-.2-.5-.5s.2-.5.5-.5h18.2v-10H80.1v10h66.3c.3 0 .5.2.5.5s-.2.5-.5.5H79.6c-.3 0-.5-.2-.5-.5v-11c0-.3.2-.5.5-.5h91.5c.3 0 .5.2.5.5v11c0 .2-.3.5-.5.5zM171.1 137.2H79.6c-.3 0-.5-.2-.5-.5v-11c0-.3.2-.5.5-.5h91.5c.3 0 .5.2.5.5v11c0 .3-.3.5-.5.5zm-91-1h90.5v-10H80.1v10zM135.9 155.6H79.6c-.3 0-.5-.2-.5-.5v-11c0-.3.2-.5.5-.5H136c.3 0 .5.2.5.5v11c-.1.2-.3.5-.6.5zm-55.8-1h55.4v-10H80.1v10zM135.9 173.7H79.6c-.3 0-.5-.2-.5-.5v-11c0-.3.2-.5.5-.5H136c.3 0 .5.2.5.5v11c-.1.3-.3.5-.6.5zm-55.8-1h55.4v-10H80.1v10z" class="st3"/><g><path d="M156.5 173.7c-8.3 0-15-6.7-15-15 0-3.4 1.1-6.7 3.3-9.4.2-.2.5-.3.7-.1.2.2.3.5.1.7-2 2.5-3.1 5.5-3.1 8.8 0 7.7 6.3 14 14 14s14-6.3 14-14-6.3-14-14-14c-2.4 0-4.7.6-6.8 1.8-.2.1-.5 0-.7-.2-.1-.2 0-.5.2-.7 2.2-1.2 4.7-1.9 7.3-1.9 8.3 0 15 6.7 15 15s-6.7 15-15 15z" class="st3"/></g><g><path d="M150.8 88.2h-32.6c-.3 0-.5-.2-.5-.5s.2-.5.5-.5h32.6c.3 0 .5.2.5.5s-.2.5-.5.5z" class="st3"/></g><g><path d="M165.1 95.1h-46.9c-.3 0-.5-.2-.5-.5s.2-.5.5-.5h46.9c.3 0 .5.2.5.5s-.2.5-.5.5z" class="st3"/></g><g><path d="M170.6 102.1h-52.4c-.3 0-.5-.2-.5-.5s.2-.5.5-.5h52.4c.3 0 .5.2.5.5s-.2.5-.5.5z" class="st3"/></g><g><path d="M93.8 207.7H3.7c-.3 0-.5-.2-.5-.5s.2-.5.5-.5h90.1c.3 0 .5.2.5.5s-.2.5-.5.5z" class="st3"/></g><g><path d="M251.6 207.7h-90c-.3 0-.5-.2-.5-.5s.2-.5.5-.5h90c.3 0 .5.2.5.5s-.3.5-.5.5z" class="st3"/></g><g><path d="M180.6 34.6c-1.6 0-3-1.3-3-3s1.3-3 3-3 3 1.3 3 3-1.4 3-3 3zm0-4.9c-1.1 0-2 .9-2 2s.9 2 2 2 2-.9 2-2-.9-2-2-2z" class="st3"/></g><g><path d="M123 231.7c-1.6 0-3-1.3-3-3s1.3-3 3-3 3 1.3 3 3-1.3 3-3 3zm0-4.9c-1.1 0-2 .9-2 2s.9 2 2 2 2-.9 2-2-.9-2-2-2z" class="st5"/></g><g><path d="M167.8 229.3h-.1l-1-.3c-.3-.1-.4-.4-.3-.6.1-.3.4-.4.6-.3h.1l-.5-1.8v-.3l.5-1.8-1.8.5h-.3l-1.8-.5.5 1.8v.3l-.5 1.8 1.8-.5c.3-.1.5.1.6.3.1.3-.1.5-.3.6l-2.7.8c-.2.1-.4 0-.5-.1-.1-.1-.2-.3-.1-.5l.8-2.6-.8-2.6c-.1-.2 0-.4.1-.5.1-.1.3-.2.5-.1l2.6.8 2.6-.8c.2-.1.4 0 .5.1s.2.3.1.5l-.8 2.6.8 2.6c.1.2 0 .4-.1.5-.2 0-.3.1-.5.1z" class="st3"/></g><g><path d="M61.4 37.9h-.1l-1-.3c-.3-.1-.4-.4-.3-.6.1-.3.4-.4.6-.3h.1l-.5-1.8v-.3l.5-1.8-1.8.5h-.3l-1.8-.5.5 1.8v.3l-.5 1.8 1.8-.5c.3-.1.5.1.6.3.1.3-.1.5-.3.6l-2.7.8c-.2.1-.4 0-.5-.1-.1-.1-.2-.3-.1-.5l.8-2.6-.8-2.6c-.1-.2 0-.4.1-.5s.3-.2.5-.1l2.6.8 2.6-.8c.2-.1.4 0 .5.1s.2.3.1.5l-.8 2.6.8 2.6c.1.2 0 .4-.1.5-.2 0-.3.1-.5.1z" class="st6"/></g><g><path d="M125.5 30.5c-.3 0-.5-.2-.5-.5v-2.4c0-.3.2-.5.5-.5s.5.2.5.5V30c0 .2-.2.5-.5.5zM125.5 36.3c-.3 0-.5-.2-.5-.5v-2.4c0-.3.2-.5.5-.5s.5.2.5.5v2.4c0 .3-.2.5-.5.5zM129.7 32.2h-2.4c-.3 0-.5-.2-.5-.5s.2-.5.5-.5h2.4c.3 0 .5.2.5.5s-.3.5-.5.5zM123.8 32.2h-2.4c-.3 0-.5-.2-.5-.5s.2-.5.5-.5h2.4c.3 0 .5.2.5.5s-.2.5-.5.5z" class="st5"/></g><g><path d="M60.4 223.1c-.3 0-.5-.2-.5-.5v-2.4c0-.3.2-.5.5-.5s.5.2.5.5v2.4c0 .3-.2.5-.5.5zM60.4 229c-.3 0-.5-.2-.5-.5V226c0-.3.2-.5.5-.5s.5.2.5.5v2.4c0 .4-.2.6-.5.6zM64.6 224.8h-2.4c-.3 0-.5-.2-.5-.5s.2-.5.5-.5h2.4c.3 0 .5.2.5.5s-.2.5-.5.5zM58.7 224.8h-2.4c-.3 0-.5-.2-.5-.5s.2-.5.5-.5h2.4c.3 0 .5.2.5.5s-.2.5-.5.5z" class="st6"/></g><g><path d="M210.7 227.3c-.3 0-.5-.2-.5-.5v-2.4c0-.3.2-.5.5-.5s.5.2.5.5v2.4c0 .2-.2.5-.5.5zM210.7 233.1c-.3 0-.5-.2-.5-.5v-2.4c0-.3.2-.5.5-.5s.5.2.5.5v2.4c0 .3-.2.5-.5.5zM214.9 229h-2.4c-.3 0-.5-.2-.5-.5s.2-.5.5-.5h2.4c.3 0 .5.2.5.5s-.2.5-.5.5zM209 229h-2.4c-.3 0-.5-.2-.5-.5s.2-.5.5-.5h2.4c.3 0 .5.2.5.5s-.2.5-.5.5z" class="st1"/></g></svg>

<svg xmlns="http://www.w3.org/2000/svg" id="Layer_1" x="0" y="0" enable-background="new 0 0 256 256" version="1.1" viewBox="0 0 256 256" xml:space="preserve"><style>.st0{fill:#DBFDFF;}
	.st1{fill:#9FEAFF;}
	.st2{fill:#FFFFFF;}
	.st3{fill:#48386A;}
	.st4{fill:#FFFFED;}
	.st5{fill:#FF8584;}
	.st6{fill:#FEBE7F;}</style><path d="M180.9 138.9c.9-3.7 1.3-7.6 1.3-11.5 0-2.9-.3-5.8-.7-8.6 25.6-2.5 45.6-24 45.6-50.3 0-27.9-22.6-50.5-50.5-50.5-8.6 0-16.7 2.1-23.7 5.9-9-8.2-20.9-13.2-34.1-13.2-11.1 0-21.4 3.6-29.8 9.7-6.4-2.8-13.3-4.4-20.7-4.4-27.9 0-50.5 22.6-50.5 50.5S40.4 117 68.3 117c5 0 9.9-.7 14.4-2.1-1 4-1.6 8.2-1.6 12.5 0 4.5.6 8.8 1.7 13-4.6-1.4-9.5-2.1-14.6-2.1-27.9 0-50.5 22.6-50.5 50.5s22.6 50.5 50.5 50.5c10.2 0 19.7-3 27.7-8.3 9 8.4 21.1 13.5 34.4 13.5 10.9 0 21-3.5 29.2-9.3 6.5 3 13.7 4.7 21.3 4.7 27.9 0 50.5-22.6 50.5-50.5.1-27.8-22.5-50.5-50.4-50.5z" class="st0"/><path d="M239.3 71.2v128.3H23.1V48.7c0-2.8 2.2-5 5-5h206.2c2.8 0 5 2.2 5 5v22.5z" class="st1"/><path d="M219.7 212.3H10.1c-3.5 0-6.4-2.9-6.4-6.4 0-3.5 2.9-6.4 6.4-6.4h235.3c3.5 0 6.4 2.9 6.4 6.4 0 3.5-2.9 6.4-6.4 6.4h-25.7z" class="st2"/><path d="M245.3 213.3h-18c-.6 0-1-.4-1-1s.4-1 1-1h18c3 0 5.4-2.4 5.4-5.4 0-3-2.4-5.4-5.4-5.4H10.1c-3 0-5.4 2.4-5.4 5.4 0 3 2.4 5.4 5.4 5.4h209.6c.6 0 1 .4 1 1s-.4 1-1 1H10.1c-4.1 0-7.4-3.3-7.4-7.4 0-4.1 3.3-7.4 7.4-7.4h235.3c4.1 0 7.4 3.3 7.4 7.4-.1 4.1-3.4 7.4-7.5 7.4z" class="st3"/><path d="M99.7 207.2 93.8 207.2 88.2 199.6 167.2 199.6 161.6 207.2 105.8 207.2z" class="st2"/><path d="M161.6 207.7h-55.8c-.3 0-.5-.2-.5-.5s.2-.5.5-.5h55.5l4.9-6.7h-77l4.9 6.7h5.6c.3 0 .5.2.5.5s-.2.5-.5.5h-5.9c-.2 0-.3-.1-.4-.2l-5.6-7.7c-.1-.2-.1-.4 0-.5.1-.2.3-.3.4-.3h79c.2 0 .4.1.4.3.1.2.1.4 0 .5l-5.6 7.7c-.1.2-.2.2-.4.2z" class="st3"/><path d="M235.8 200.6H19.6c-.6 0-1-.4-1-1V48.7c0-3.3 2.7-6 6-6h206.2c3.3 0 6 2.7 6 6v15.8c0 .6-.4 1-1 1s-1-.4-1-1V48.7c0-2.2-1.8-4-4-4H24.6c-2.2 0-4 1.8-4 4v149.8h214.2V71.2c0-.6.4-1 1-1s1 .4 1 1v128.3c0 .6-.5 1.1-1 1.1z" class="st3"/><path d="M25.2 84.8c-.6 0-1-.4-1-1v-2.3c0-.6.4-1 1-1s1 .4 1 1v2.3c0 .5-.4 1-1 1z" class="st3"/><path d="M25.2 75.5 25.2 49.3 230.2 49.3 230.2 193.9 25.2 193.9 25.2 88.8z" class="st2"/><path d="M230.2 194.9h-205c-.6 0-1-.4-1-1V88.8c0-.6.4-1 1-1s1 .4 1 1V193h202.9V50.3H26.2v25.2c0 .6-.4 1-1 1s-1-.4-1-1V49.3c0-.6.4-1 1-1h204.9c.6 0 1 .4 1 1v144.6c.1.6-.4 1-.9 1zM127.7 207.5c-.3 0-.5-.2-.5-.5v-7.5c0-.3.2-.5.5-.5s.5.2.5.5v7.5c0 .3-.2.5-.5.5z" class="st3"/><path d="M73 162.2 73 193.9 182.4 193.9 182.4 85.2 159.7 62.5 73 62.5 73 157z" class="st4"/><path d="M182.4 194.9H73c-.6 0-1-.4-1-1v-31.7c0-.6.4-1 1-1s1 .4 1 1v30.7h107.4V85.6l-22.1-22.1H74V157c0 .6-.4 1-1 1s-1-.4-1-1V62.5c0-.6.4-1 1-1h86.7c.3 0 .5.1.7.3l22.7 22.7c.2.2.3.4.3.7v108.7c0 .6-.5 1-1 1z" class="st3"/><path d="M182.4 86.2h-22.7c-.6 0-1-.4-1-1V62.5c0-.4.2-.8.6-.9.4-.2.8-.1 1.1.2l22.7 22.7c.3.3.4.7.2 1.1-.1.4-.5.6-.9.6zm-21.7-2H180l-19.3-19.3v19.3z" class="st3"/><path d="M104.7 69.8 117.3 69.8 117.3 101.6 83.1 101.6 83.1 69.8 100.2 69.8z" class="st5"/><path d="M82.6 162.2H139V173.2H82.6z" class="st5"/><path d="M149.8 119.9 83.1 119.9 83.1 108.9 174.6 108.9 174.6 119.9 155.8 119.9z" class="st6"/><path d="M153 145.9c2.1-1.2 4.5-1.8 7-1.8 8 0 14.5 6.5 14.5 14.5s-6.5 14.5-14.5 14.5-14.5-6.5-14.5-14.5c0-3.4 1.2-6.6 3.2-9.1l4.3-3.6z" class="st0"/><path d="M113.8 102.1H79.6c-.3 0-.5-.2-.5-.5V69.8c0-.3.2-.5.5-.5h17.1c.3 0 .5.2.5.5s-.2.5-.5.5H80.1v30.8h33.3V70.3h-12.1c-.3 0-.5-.2-.5-.5s.2-.5.5-.5h12.6c.3 0 .5.2.5.5v31.8c-.1.3-.3.5-.6.5zM171.1 120.4h-18.7c-.3 0-.5-.2-.5-.5s.2-.5.5-.5h18.2v-10H80.1v10h66.3c.3 0 .5.2.5.5s-.2.5-.5.5H79.6c-.3 0-.5-.2-.5-.5v-11c0-.3.2-.5.5-.5h91.5c.3 0 .5.2.5.5v11c0 .2-.3.5-.5.5zM171.1 137.2H79.6c-.3 0-.5-.2-.5-.5v-11c0-.3.2-.5.5-.5h91.5c.3 0 .5.2.5.5v11c0 .3-.3.5-.5.5zm-91-1h90.5v-10H80.1v10zM135.9 155.6H79.6c-.3 0-.5-.2-.5-.5v-11c0-.3.2-.5.5-.5H136c.3 0 .5.2.5.5v11c-.1.2-.3.5-.6.5zm-55.8-1h55.4v-10H80.1v10zM135.9 173.7H79.6c-.3 0-.5-.2-.5-.5v-11c0-.3.2-.5.5-.5H136c.3 0 .5.2.5.5v11c-.1.3-.3.5-.6.5zm-55.8-1h55.4v-10H80.1v10z" class="st3"/><g><path d="M156.5 173.7c-8.3 0-15-6.7-15-15 0-3.4 1.1-6.7 3.3-9.4.2-.2.5-.3.7-.1.2.2.3.5.1.7-2 2.5-3.1 5.5-3.1 8.8 0 7.7 6.3 14 14 14s14-6.3 14-14-6.3-14-14-14c-2.4 0-4.7.6-6.8 1.8-.2.1-.5 0-.7-.2-.1-.2 0-.5.2-.7 2.2-1.2 4.7-1.9 7.3-1.9 8.3 0 15 6.7 15 15s-6.7 15-15 15z" class="st3"/></g><g><path d="M150.8 88.2h-32.6c-.3 0-.5-.2-.5-.5s.2-.5.5-.5h32.6c.3 0 .5.2.5.5s-.2.5-.5.5z" class="st3"/></g><g><path d="M165.1 95.1h-46.9c-.3 0-.5-.2-.5-.5s.2-.5.5-.5h46.9c.3 0 .5.2.5.5s-.2.5-.5.5z" class="st3"/></g><g><path d="M170.6 102.1h-52.4c-.3 0-.5-.2-.5-.5s.2-.5.5-.5h52.4c.3 0 .5.2.5.5s-.2.5-.5.5z" class="st3"/></g><g><path d="M93.8 207.7H3.7c-.3 0-.5-.2-.5-.5s.2-.5.5-.5h90.1c.3 0 .5.2.5.5s-.2.5-.5.5z" class="st3"/></g><g><path d="M251.6 207.7h-90c-.3 0-.5-.2-.5-.5s.2-.5.5-.5h90c.3 0 .5.2.5.5s-.3.5-.5.5z" class="st3"/></g><g><path d="M180.6 34.6c-1.6 0-3-1.3-3-3s1.3-3 3-3 3 1.3 3 3-1.4 3-3 3zm0-4.9c-1.1 0-2 .9-2 2s.9 2 2 2 2-.9 2-2-.9-2-2-2z" class="st3"/></g><g><path d="M123 231.7c-1.6 0-3-1.3-3-3s1.3-3 3-3 3 1.3 3 3-1.3 3-3 3zm0-4.9c-1.1 0-2 .9-2 2s.9 2 2 2 2-.9 2-2-.9-2-2-2z" class="st5"/></g><g><path d="M167.8 229.3h-.1l-1-.3c-.3-.1-.4-.4-.3-.6.1-.3.4-.4.6-.3h.1l-.5-1.8v-.3l.5-1.8-1.8.5h-.3l-1.8-.5.5 1.8v.3l-.5 1.8 1.8-.5c.3-.1.5.1.6.3.1.3-.1.5-.3.6l-2.7.8c-.2.1-.4 0-.5-.1-.1-.1-.2-.3-.1-.5l.8-2.6-.8-2.6c-.1-.2 0-.4.1-.5.1-.1.3-.2.5-.1l2.6.8 2.6-.8c.2-.1.4 0 .5.1s.2.3.1.5l-.8 2.6.8 2.6c.1.2 0 .4-.1.5-.2 0-.3.1-.5.1z" class="st3"/></g><g><path d="M61.4 37.9h-.1l-1-.3c-.3-.1-.4-.4-.3-.6.1-.3.4-.4.6-.3h.1l-.5-1.8v-.3l.5-1.8-1.8.5h-.3l-1.8-.5.5 1.8v.3l-.5 1.8 1.8-.5c.3-.1.5.1.6.3.1.3-.1.5-.3.6l-2.7.8c-.2.1-.4 0-.5-.1-.1-.1-.2-.3-.1-.5l.8-2.6-.8-2.6c-.1-.2 0-.4.1-.5s.3-.2.5-.1l2.6.8 2.6-.8c.2-.1.4 0 .5.1s.2.3.1.5l-.8 2.6.8 2.6c.1.2 0 .4-.1.5-.2 0-.3.1-.5.1z" class="st6"/></g><g><path d="M125.5 30.5c-.3 0-.5-.2-.5-.5v-2.4c0-.3.2-.5.5-.5s.5.2.5.5V30c0 .2-.2.5-.5.5zM125.5 36.3c-.3 0-.5-.2-.5-.5v-2.4c0-.3.2-.5.5-.5s.5.2.5.5v2.4c0 .3-.2.5-.5.5zM129.7 32.2h-2.4c-.3 0-.5-.2-.5-.5s.2-.5.5-.5h2.4c.3 0 .5.2.5.5s-.3.5-.5.5zM123.8 32.2h-2.4c-.3 0-.5-.2-.5-.5s.2-.5.5-.5h2.4c.3 0 .5.2.5.5s-.2.5-.5.5z" class="st5"/></g><g><path d="M60.4 223.1c-.3 0-.5-.2-.5-.5v-2.4c0-.3.2-.5.5-.5s.5.2.5.5v2.4c0 .3-.2.5-.5.5zM60.4 229c-.3 0-.5-.2-.5-.5V226c0-.3.2-.5.5-.5s.5.2.5.5v2.4c0 .4-.2.6-.5.6zM64.6 224.8h-2.4c-.3 0-.5-.2-.5-.5s.2-.5.5-.5h2.4c.3 0 .5.2.5.5s-.2.5-.5.5zM58.7 224.8h-2.4c-.3 0-.5-.2-.5-.5s.2-.5.5-.5h2.4c.3 0 .5.2.5.5s-.2.5-.5.5z" class="st6"/></g><g><path d="M210.7 227.3c-.3 0-.5-.2-.5-.5v-2.4c0-.3.2-.5.5-.5s.5.2.5.5v2.4c0 .2-.2.5-.5.5zM210.7 233.1c-.3 0-.5-.2-.5-.5v-2.4c0-.3.2-.5.5-.5s.5.2.5.5v2.4c0 .3-.2.5-.5.5zM214.9 229h-2.4c-.3 0-.5-.2-.5-.5s.2-.5.5-.5h2.4c.3 0 .5.2.5.5s-.2.5-.5.5zM209 229h-2.4c-.3 0-.5-.2-.5-.5s.2-.5.5-.5h2.4c.3 0 .5.2.5.5s-.2.5-.5.5z" class="st1"/></g></svg>
